X:1
T:The Humours of Whiskey
M:9/8
L:1/8
Q:80
C:arr. Kent Hiestand
S:Jig
K:HP
{g}fge{g}fB{G}B{g}fB{G}B|
{g}fge{g}fB{G}B{g}cB{G}A|
{g}fge{g}fB{G}B{g}fB{G}B|  !
{g}cde{A}efd{g}cB{G}A:| |:
{Gdc}d2e{g}fge{g}fge|
{Gdc}d2e{g}fga{g}age|  !
{Gdc}d2e{g}fge{g}fge|
{g}fga{g}aed{g}cB{G}A:|

